X:659
T:Reel 659
M:4/4
K:Dmaj
L:1/8
dB|A>D (3DDD AGFG|A>D (3DDD D2dg|edc (3dcB AGFG|E=ced =cAGF|EFED ADcD (3DDD |AdcA BGBd|gafd  (3gfe ce|dfed cAB||=cA (3ABA Agfd| (3aba fd cBBG| (3fgf df  (3fgf df|eaaf ecd2|fg (3gfg fd (3dcd |Agag fdd2| (3ABA de f2ed|eaag agfd|
